X:1
T:The Golden Vanity (z)
M:2/4
L:1/8
K:G
 d3/2 d/2| ed ef| g4-| g2 d3/2- d/2| ed ef| g2 dd| e2 dd| d2 BA| GG AG|\
 G2 G3/2 A/2| BA Bc| d2 ed|B-A G2| B2 G3/2 A/2| BA Bc| d2 A2| G4-|\
 G2||

